!!!!SEGMENT: pl-sa--481-a-viii-121--041_anonim--rondo.krn
!!!cenid: 18xx:412
!!!COM: Anonim
!!!COM-rismID: pe30004985
!!!CDT:
!!!CNT:
!!!OTL: Rondo
!!!PDT:
!!!AGN: Secular; Rondo
!!!SMS-siglum: PL-SA
!!!SMS-shelfmark: 481/A VIII 121
!!!SMS-shelfwork: 041 W
!!!SMS-variant:
!!!SMS-altvar:
!!!NIFC-rismSourceID: 1001070716
!!!NIFC-islandoraID:
!!!URL-pdf-islandora:
!!!URL-scan: https://bc.bdsandomierz.pl/dlibra/publication/1212/edition/1171/content @EN{Scan in the Sandomierz Diocese Digital Library} @PL{Skany w portalu Cyfrowa Biblioteka Diecezjalna w Sandomierzu}
!!!ONB-nifc: Str. 27-28 (s. 1)
!!!AIN: 1 piano
!!!key:
**kern	**kern
*part1	*part1
*staff2	*staff1
*Ipiano	*Ipiano
*I"Piano	*I"Piano
*I'P-no	*I'P-no
*group1	*group1
*clefF4	*clefG2
*k[]	*k[]
*C:	*C:
*M2/4	*M2/4
*>[A,A,B,B]	*>[A,A,B,B]
=1	=1
*>A	*>A
*2\right	*2\right
*clefG2	*
!LO:TX:a:t=P:problem= 8/left&colon; global	!LO:TX:a:t=P:problem= 4\middle&colon; global
8c/L	4cc\ 4ee
8g/	.
!	!LO:TX:a:t=P:problem= 8\middle&colon; global
8e/	8cc\L 8ee
8g/J	8dd\J 8ff
=2	=2
8c/L	2ee\ 2gg
8g/	.
8e/	.
8g/J	.
=3	=3
8G/L	4b\ 4dd
8g/	.
8d/	8b\L 8dd
8g/J	8cc\J 8ee
=4	=4
*rep	*
8G/L	2dd\ 2ff
8g/	.
8d/	.
8g/J	.
*Xrep	*
=5	=5
8c/L	4cc\ 4ee
8g/	.
8e/	4dd\ 4ff
8g/J	.
=6	=6
*rep	*
8c/L	4.ee\ 4.gg
8g/	.
8e/	.
8g/J	8ccc\
*Xrep	*
=7	=7
*rep	*
8c/L	8ee\L 8gg
8g/	8dd\ 8ff
8e/	8dd\ 8ff
8g/J	8cc\J 8ee
*Xrep	*
=8	=8
8G/L	4cc\ 4ee
8g/	.
8d/	4b\ 4dd
8g/J	.
=9	=9
8c/L	4cc\ 4ee
8g/	.
8e/	8cc\L 8ee
8g/J	8dd\J 8ff
=10	=10
*rep	*
8c/L	2ee\ 2gg
8g/	.
8e/	.
8g/J	.
*Xrep	*
=11	=11
8G/L	4b\ 4dd
8g/	.
8d/	8b\L 8dd
8g/J	8cc\J 8ee
=12	=12
*rep	*
8G/L	2dd\ 2ff
8g/	.
8d/	.
8g/J	.
*Xrep	*
=13	=13
8c/L	4cc\ 4ee
8g/	.
8e/	4dd\ 4ff
8g/J	.
=14	=14
*rep	*
8c/L	4.ee\ 4.gg
8g/	.
8e/	.
8g/J	8ccc\
*Xrep	*
=15	=15
!LO:TX:a:t=P:problem=zamazana nuta	!
8E/L	8ee\L 8gg
8g/	8dd\ 8ff
8d/	8cc\ 8ee
8g/J	8b\J 8dd
=16	=16
4c/	4cc\
4r	4r
!LO:LB:g=original	!LO:LB:g=original
=17	=17
*clefF4	*
!	!LO:TX:a:t=P:problem= 4/middle&colon; global
8C\L	4c/ 4e
8G\	.
!	!LO:TX:a:t=P:problem=8\middle&colon; global
8E\	8c/L 8e
8G\J	8d/J 8f
=18	=18
8C\L	2e/ 2g
8G\	.
8E\	.
8G\J	.
=19	=19
8GG\L	4B/ 4d
8G\	.
8D\	8B/L 8d
8G\J	8c/J 8e
=20	=20
8GG\L	2d/ 2f
8G\	.
8D\	.
8G\J	.
=21	=21
8C\L	4c/ 4e
8G\	.
8E\	4d/ 4f
8G\J	.
=22	=22
*rep	*
8C\L	4.e/ 4.g
8G\	.
8E\	.
8G\J	8cc/
*Xrep	*
=23	=23
*rep	*
8C\L	4.e/ 4.g
8G\	.
8E\	.
8G\J	8cc/
*Xrep	*
=24	=24
*rep	*
8C\L	8e/L 8g
8G\	8d/ 8f
8E\	8d/ 8f
8G\J	8c/J 8e
*Xrep	*
=25	=25
8GG\L	4c/ 4e
8G\	.
8D\	4B/ 4d
8G\J	.
=26	=26
8C\L	4c/ 4e
8G\	.
8E\	8c/L 8e
8G\J	8d/J 8f
=27	=27
*rep	*
8C\L	2e/ 2g
8G\	.
8E\	.
8G\J	.
*Xrep	*
=28	=28
8GG\L	4B/ 4d
8G\	.
8D\	8B/L 8d
8G\J	8c/J 8e
=29	=29
*rep	*
8GG\L	2d/ 2f
8G\	.
8D\	.
8G\J	.
*Xrep	*
=30	=30
8C\L	4c/ 4e
8G\	.
8E\	4d/ 4f
8G\J	.
=31	=31
*rep	*
8C\L	4.e/ 4.g
8G\	.
8E\	.
8G\J	8cc/
*Xrep	*
=32	=32
8GG\L	8e/L 8g
8G\	8d/ 8f
8D\	8c/ 8e
8G\J	8B/J 8d
=33	=33
4C\	4c/
4r	4r
!LO:LB:g=original	!LO:LB:g=original
=34:|!|:	=34:|!|:
*>B	*>B
!LO:TX:a:t=P:problem= 4\middle&colon; global	!LO:TX:a:t=P:problem= 8\right&colon; global
4G\	8dd\L
.	8ee\
4g\	8dd\
.	8b\J
=35	=35
4G\	8dd\L
.	8ee\
4g\	8dd\
.	8b\J
=36	=36
*rep	*
4G\	8dd\L
.	8ff\
4g\	8ee\
.	8cc\J
*Xrep	*
=37	=37
*rep	*
4G\	8ee\L
.	8ff\
4g\	8ee\
.	8cc\J
*Xrep	*
=38	=38
*rep	*
4G\	8ff\L
.	8gg\
4g\	8ff\
.	8dd\J
*Xrep	*
=39	=39
*rep	*
4G\	8ee\L
.	8ff\
4g\	8ee\
.	8cc\J
*Xrep	*
=40	=40
*rep	*
4G\	4b\
.	.
4g\	4b\ 4dd 4gg
.	.
*Xrep	*
=41	=41
*rep	*
4G\	2b\ 2dd 2gg
.	.
4g\	.
.	.
*Xrep	*
=42	=42
*rep	*
4G\	8dd\L
.	8ee\
4g\	8dd\
.	8b\J
*Xrep	*
=43	=43
*rep	*
4G\	8dd\L
.	8ee\
4g\	8dd\
.	8b\J
*Xrep	*
=44	=44
*rep	*
4G\	8ee\L
.	8ff\
4g\	8ee\
.	8cc\J
*Xrep	*
=45	=45
*rep	*
4G\	8ee\L
.	8ff\
4g\	8ee\
.	8cc\J
*Xrep	*
=46	=46
*rep	*
4G\	8ff\L
.	8gg\
4g\	8ff\
.	8dd\J
*Xrep	*
=47	=47
*rep	*
4G\	8ee\L
.	8ff\
4g\	8ee\
.	8cc\J
*Xrep	*
=48	=48
*	*^
!	!LO:N:vis=4	!
2G\	4b\ 4dd 4gg	8ryy
.	.	8dd\L
.	8ryy	8ff\
!	!LO:TX:a:t=P:problem= brak kreski taktowej	!
.	8ryy	8ee\J
*	*v	*v
=49	=49
!	!LO:TX:a:t=P:problem= brak taktu w źródle
*rep	*
2G\	8gg\L
.	8ff\
.	8ee\
.	8dd\J
*Xrep	*
*clefG2	*
!LO:LB:g=original	!LO:LB:g=original
=50	=50
8c/L	4cc\ 4ee
8g/	.
8e/	8cc\L 8ee
8g/J	8dd\J 8ff
=51	=51
*rep	*
8c/L	2ee\ 2gg
8g/	.
8e/	.
8g/J	.
*Xrep	*
=52	=52
8G/L	4b\ 4dd
8g/	.
8d/	8b\L 8dd
8g/J	8cc\J 8ee
=53	=53
*rep	*
8G/L	2dd\ 2ff
8g/	.
8d/	.
8g/J	.
*Xrep	*
=54	=54
8c/L	4cc\ 4ee
8g/	.
8e/	4dd\ 4ff
8g/J	.
=55	=55
*rep	*
8c/L	4.ee\ 4.gg
8g/	.
8e/	.
8g/J	8ccc\
*Xrep	*
=56	=56
*rep	*
8c/L	8ee\L 8gg
8g/	8dd\ 8ff
8e/	8dd\ 8ff
8g/J	8cc\J 8ee
*Xrep	*
=57	=57
8G/L	4cc\ 4ee
8g/	.
8d/	4b\ 4dd
8g/J	.
=58	=58
8c/L	4cc\ 4ee
8g/	.
8e/	8cc\L 8ee
8g/J	8dd\J 8ff
=59	=59
*rep	*
8c/L	2ee\ 2gg
8g/	.
8e/	.
8g/J	.
*Xrep	*
=60	=60
8G/L	4b\ 4dd
8g/	.
8d/	8b\L 8dd
8g/J	8cc\J 8ee
=61	=61
*rep	*
8G/L	2dd\ 2ff
8g/	.
8d/	.
8g/J	.
*Xrep	*
=62	=62
8c/L	4cc\ 4ee
8g/	.
8e/	4dd\ 4ff
8g/J	.
=63	=63
*rep	*
8c/L	4.ee\ 4.gg
8g/	.
8e/	.
8g/J	8ccc\
*Xrep	*
=64	=64
8G/L	8ee\L 8gg
8g/	8dd\ 8ff
8d/	8cc\ 8ee
8g/J	8b\J 8dd
=65	=65
4c/	4cc\
4r	4r
*clefF4	*
=66	=66
8C\L	4c/ 4e
8G\	.
8E\	8c/L 8e
8G\J	8d/J 8f
=67	=67
*rep	*
8C\L	2e/ 2g
8G\	.
8E\	.
8G\J	.
*Xrep	*
=68	=68
8GG\L	4B/ 4d
8G\	.
8D\	8B/L 8d
8G\J	8e/J
!LO:LB:g=original	!LO:LB:g=original
=69	=69
8GG\L	2d/ 2f
8G\	.
8D\	.
8G\J	.
=70	=70
8C\L	4c/ 4e
8G\	.
8E\	4d/ 4f
8G\J	.
=71	=71
*rep	*
8C\L	4.e/ 4.g
8G\	.
8E\	.
8G\J	8cc/
*Xrep	*
=72	=72
*Xrep	*
8C\L	8e/L 8g
8G\	8d/ 8f
8E\	8d/ 8f
8G\J	8c/J 8e
*Xrep	*
=73	=73
8GG\L	4c/ 4e
8G\	.
8D\	4B/ 4d
8G\J	.
=74	=74
8C\L	4c/ 4e
8G\	.
8E\	8c/L 8e
8G\J	8d/J 8f
=75	=75
*rep	*
8C\L	2e/ 2g
8G\	.
8E\	.
8G\J	.
*Xrep	*
=76	=76
8GG\L	4B/ 4d
8G\	.
8D\	8B/L 8d
8G\J	8c/J 8e
=77	=77
*rep	*
8GG\L	2d/ 2f
8G\	.
8D\	.
8G\J	.
*Xrep	*
=78	=78
8C\L	4c/ 4e
8G\	.
8E\	4d/ 4f
8G\J	.
=79	=79
*rep	*
!	!LO:TX:a:t=P:problem=brak laski przy nucie
8C\L	4.e/ 4.g
8G\	.
8E\	.
8G\J	8cc/
*Xrep	*
=80	=80
8GG\L	8e/L 8g
8G\	8d/ 8f
8D\	8c/ 8e
8G\J	8B/J 8d
=81	=81
4C\	4c/
4r	4r
=82	=82
!LO:TX:a:t=P::problem= mixed beam&colon;t. 82-94	!
8GG/L	4g/ 4b 4dd
8G\	.
8GG/	4a/ 4cc
8G\J	.
=83	=83
*rep	*
8GG/L	4g/ 4b
8G\	.
8GG/	4g/ 4b
8G\J	.
*Xrep	*
=84	=84
*rep	*
8GG/L	4.dd\ 4.ff
8G\	.
8GG/	.
8G\J	8cc\ 8ee
*Xrep	*
=85	=85
*rep	*
8GG/L	4b\ 4dd
8G\	.
8GG/	4b\ 4dd
8G\J	.
*Xrep	*
=86	=86
*rep	*
8GG/L	4cc\ 4ee
8G\	.
8GG/	4ee\ 4gg
8G\J	.
*Xrep	*
=87	=87
*rep	*
8GG/L	4cc\ 4ee
8G\	.
8GG/	4ee\ 4gg
8G\J	.
*Xrep	*
=88	=88
*rep	*
8GG/L	8ff\L 8aa
8G\	8ee\ 8gg
8GG/	8dd\ 8ff
8G\J	8cc\J 8ee
*Xrep	*
=89	=89
*rep	*
8GG/L	4cc\ 4ee
8G\	.
8GG/	4b\ 4dd
8G\J	.
*Xrep	*
=90	=90
*rep	*
8GG/L	4.b\ 4.dd
8G\	.
8GG/	.
8G\J	8a\ 8cc
*Xrep	*
=91	=91
*rep	*
8GG/L	4g\ 4b
8G\	.
8GG/	4g\ 4b
8G\J	.
*rep	*
=92	=92
*rep	*
8GG/L	4.dd\ 4.ff
8G\	.
8GG/	.
!	!LO:N:vis=4
8G\J	8cc\ 8ee
*Xrep	*
=93	=93
*rep	*
8GG/L	4b\ 4dd
8G\	.
8GG/	4b\ 4dd
8G\J	.
*Xrep	*
!LO:TX:a:t=P:problem= skreślony takt	!
!LO:PB:g=original	!LO:PB:g=original
=94	=94
*rep	*
8GG/L	8ee\L
8G\	8cc\
8GG/	8ee\
8G\J	8gg\J
*Xrep	*
=95	=95
!LO:N:vis=4	!
2E\	8ff\L
.	8ee\
.	8dd\
.	8cc\J
=96	=96
*	*^
2G\	2b\ 2dd	8ryy
.	.	8b\L 8dd
.	.	8cc\ 8ee
!LO:TX:a:t=P:problem= podwójna kreska taktowa z obustronną repetycją	!LO:TX:a:t=P:problem= podwójna kreska taktowa z obustronną repetycją	!
.	.	8dd\J 8ff
*	*v	*v
=:|!;;	=:|!;;
*-	*-
!!!system-decoration: [(g1)]
!!!ENC: Anna Matuszewska
!!!END: 2020-11-23
!!!ENC: Anastazja Marusiak
!!!END: 2020-06-15
!!!YEC: Copyright 2022 Narodowy Instytut Fryderyka Chopina (https://polishscores.org)
!!!YEM: Licence CC BY 4.0 (https://creativecommons.org/licenses/by/4.0)
